web/img/gamefield.svg

<?xml version="1.0" encoding="UTF-8" standalone="no"?>
<!-- Generator: Adobe Illustrator 18.1.1, SVG Export Plug-In . SVG Version: 6.00 Build 0)  -->

<svg
   xmlns:dc="http://purl.org/dc/elements/1.1/"
   xmlns:cc="http://creativecommons.org/ns#"
   xmlns:rdf="http://www.w3.org/1999/02/22-rdf-syntax-ns#"
   xmlns:svg="http://www.w3.org/2000/svg"
   xmlns="http://www.w3.org/2000/svg"
   xmlns:sodipodi="http://sodipodi.sourceforge.net/DTD/sodipodi-0.dtd"
   xmlns:inkscape="http://www.inkscape.org/namespaces/inkscape"
   version="1.1"
   id="Layer_1"
   x="0px"
   y="0px"
   viewBox="0 0 672 672"
   enable-background="new 0 0 672 552"
   xml:space="preserve"
   inkscape:version="0.48.4 r9939"
   width="100%"
   height="100%"
   sodipodi:docname="gamefield.svg"><metadata
     id="metadata15"><rdf:RDF><cc:Work
         rdf:about=""><dc:format>image/svg+xml</dc:format><dc:type
           rdf:resource="http://purl.org/dc/dcmitype/StillImage" /></cc:Work></rdf:RDF></metadata><defs
     id="defs13" /><sodipodi:namedview
     pagecolor="#ffffff"
     bordercolor="#666666"
     borderopacity="1"
     objecttolerance="10"
     gridtolerance="10"
     guidetolerance="10"
     inkscape:pageopacity="0"
     inkscape:pageshadow="2"
     inkscape:window-width="1811"
     inkscape:window-height="939"
     id="namedview11"
     showgrid="false"
     inkscape:zoom="0.85507246"
     inkscape:cx="581.77891"
     inkscape:cy="369.05556"
     inkscape:window-x="0"
     inkscape:window-y="0"
     inkscape:window-maximized="0"
     inkscape:current-layer="Layer_1" /><rect
     style="fill:#ffffff;fill-opacity:1;stroke:#000000;stroke-width:6.20332527;stroke-miterlimit:4;stroke-opacity:1;stroke-dasharray:none"
     id="rect3825"
     width="665.79669"
     height="665.79669"
     x="3.1016455"
     y="3.1016626" /><rect
     style="opacity:0.14732145;fill:#000000;fill-opacity:0;stroke:#000000;stroke-width:13;stroke-miterlimit:4;stroke-opacity:1;stroke-dasharray:none"
     id="rect2992"
     width="224"
     height="657.25421"
     x="224"
     y="7.5820923" /><rect
     style="opacity:0.14732144999999999;fill:#000000;fill-opacity:0;stroke:#000000;stroke-width:13;stroke-miterlimit:4;stroke-opacity:1;stroke-dasharray:none"
     id="rect2992-1"
     width="224"
     height="657.25421"
     x="-448.2092"
     y="7.3728943"
     transform="matrix(0,-1,1,0,0,0)" /><g
     id="g3796"
     transform="matrix(0.33333333,0,0,0.3337398,166.9661,-19.152237)"
     style="opacity:0.4;fill:#ededff;fill-opacity:1"><g
       style="fill:#ededff;fill-opacity:1"
       transform="matrix(1,0,0,1.2156884,-500.89831,59.604431)"
       id="g3-1"><path
         style="fill:#ededff;fill-opacity:1;fill-rule:evenodd"
         inkscape:connector-curvature="0"
         id="path5-8"
         d="m 669,545.8 c 0,1.7 -1.3,3 -3,3 H 6 c -1.7,0 -3,-1.3 -3,-3 V 5.7 C 3,4 4.3,2.7 6,2.7 h 660 c 1.7,0 3,1.3 3,3 v 540.1 z"
         clip-rule="evenodd" /><path
         style="fill:#ededff;fill-opacity:1"
         inkscape:connector-curvature="0"
         id="path7-1"
         d="m 666,5.7 v 540 H 6 V 5.7 h 660 m 0,-6 H 6 c -3.3,0 -6,3 -6,6.3 v 540 c 0,3.3 2.7,5.8 6,5.8 h 660 c 3.3,0 6,-2.4 6,-5.8 V 6 c 0,-3.3 -2.7,-6.3 -6,-6.3 l 0,0 z" /><path
         style="fill:#ededff;fill-opacity:1"
         inkscape:connector-curvature="0"
         id="path9-1"
         d="m 666,5.7 v 540 H 6 V 5.7 h 660 m 0,-4 H 6 c -2.2,0 -4,2 -4,4.2 v 540 c 0,2.2 1.8,3.8 4,3.8 h 660 c 2.2,0 4,-1.5 4,-3.8 V 6 c 0,-2.2 -1.8,-4.3 -4,-4.3 l 0,0 z" /></g><rect
       y="66.2034"
       x="-276.89832"
       height="657.25421"
       width="224"
       id="rect2992-6"
       style="opacity:0.14732145;fill:#ededff;fill-opacity:1;stroke:#000000;stroke-width:13;stroke-miterlimit:4;stroke-opacity:1;stroke-dasharray:none" /><rect
       transform="matrix(0,-1,1,0,0,0)"
       y="-493.52542"
       x="-506.83047"
       height="657.25421"
       width="224"
       id="rect2992-1-8"
       style="opacity:0.14732145;fill:#ededff;fill-opacity:1;stroke:#000000;stroke-width:13;stroke-miterlimit:4;stroke-opacity:1;stroke-dasharray:none" /></g><g
     id="g3796-6"
     transform="matrix(0.33333333,0,0,0.3337398,390.9661,-19.152237)"
     style="opacity:0.4;fill:#ededff;fill-opacity:1"><g
       style="fill:#ededff;fill-opacity:1"
       transform="matrix(1,0,0,1.2156884,-500.89831,59.604431)"
       id="g3-1-4"><path
         style="fill:#ededff;fill-opacity:1;fill-rule:evenodd"
         inkscape:connector-curvature="0"
         id="path5-8-8"
         d="m 669,545.8 c 0,1.7 -1.3,3 -3,3 H 6 c -1.7,0 -3,-1.3 -3,-3 V 5.7 C 3,4 4.3,2.7 6,2.7 h 660 c 1.7,0 3,1.3 3,3 v 540.1 z"
         clip-rule="evenodd" /><path
         style="fill:#ededff;fill-opacity:1"
         inkscape:connector-curvature="0"
         id="path7-1-6"
         d="m 666,5.7 v 540 H 6 V 5.7 h 660 m 0,-6 H 6 c -3.3,0 -6,3 -6,6.3 v 540 c 0,3.3 2.7,5.8 6,5.8 h 660 c 3.3,0 6,-2.4 6,-5.8 V 6 c 0,-3.3 -2.7,-6.3 -6,-6.3 l 0,0 z" /><path
         style="fill:#ededff;fill-opacity:1"
         inkscape:connector-curvature="0"
         id="path9-1-1"
         d="m 666,5.7 v 540 H 6 V 5.7 h 660 m 0,-4 H 6 c -2.2,0 -4,2 -4,4.2 v 540 c 0,2.2 1.8,3.8 4,3.8 h 660 c 2.2,0 4,-1.5 4,-3.8 V 6 c 0,-2.2 -1.8,-4.3 -4,-4.3 l 0,0 z" /></g><rect
       y="66.2034"
       x="-276.89832"
       height="657.25421"
       width="224"
       id="rect2992-6-2"
       style="opacity:0.14732145;fill:#ededff;fill-opacity:1;stroke:#000000;stroke-width:13;stroke-miterlimit:4;stroke-opacity:1;stroke-dasharray:none" /><rect
       transform="matrix(0,-1,1,0,0,0)"
       y="-493.52542"
       x="-506.83047"
       height="657.25421"
       width="224"
       id="rect2992-1-8-7"
       style="opacity:0.14732145;fill:#ededff;fill-opacity:1;stroke:#000000;stroke-width:13;stroke-miterlimit:4;stroke-opacity:1;stroke-dasharray:none" /></g><g
     id="g3796-6-9"
     transform="matrix(0.33333333,0,0,0.3337398,614.9661,-19.770654)"
     style="opacity:0.4;fill:#ededff;fill-opacity:1"><g
       style="fill:#ededff;fill-opacity:1"
       transform="matrix(1,0,0,1.2156884,-500.89831,59.604431)"
       id="g3-1-4-7"><path
         style="fill:#ededff;fill-opacity:1;fill-rule:evenodd"
         inkscape:connector-curvature="0"
         id="path5-8-8-4"
         d="m 669,545.8 c 0,1.7 -1.3,3 -3,3 H 6 c -1.7,0 -3,-1.3 -3,-3 V 5.7 C 3,4 4.3,2.7 6,2.7 h 660 c 1.7,0 3,1.3 3,3 v 540.1 z"
         clip-rule="evenodd" /><path
         style="fill:#ededff;fill-opacity:1"
         inkscape:connector-curvature="0"
         id="path7-1-6-8"
         d="m 666,5.7 v 540 H 6 V 5.7 h 660 m 0,-6 H 6 c -3.3,0 -6,3 -6,6.3 v 540 c 0,3.3 2.7,5.8 6,5.8 h 660 c 3.3,0 6,-2.4 6,-5.8 V 6 c 0,-3.3 -2.7,-6.3 -6,-6.3 l 0,0 z" /><path
         style="fill:#ededff;fill-opacity:1"
         inkscape:connector-curvature="0"
         id="path9-1-1-4"
         d="m 666,5.7 v 540 H 6 V 5.7 h 660 m 0,-4 H 6 c -2.2,0 -4,2 -4,4.2 v 540 c 0,2.2 1.8,3.8 4,3.8 h 660 c 2.2,0 4,-1.5 4,-3.8 V 6 c 0,-2.2 -1.8,-4.3 -4,-4.3 l 0,0 z" /></g><rect
       y="66.2034"
       x="-276.89832"
       height="657.25421"
       width="224"
       id="rect2992-6-2-6"
       style="opacity:0.14732145;fill:#ededff;fill-opacity:1;stroke:#000000;stroke-width:13;stroke-miterlimit:4;stroke-opacity:1;stroke-dasharray:none" /><rect
       transform="matrix(0,-1,1,0,0,0)"
       y="-493.52542"
       x="-506.83047"
       height="657.25421"
       width="224"
       id="rect2992-1-8-7-6"
       style="opacity:0.14732145;fill:#ededff;fill-opacity:1;stroke:#000000;stroke-width:13;stroke-miterlimit:4;stroke-opacity:1;stroke-dasharray:none" /></g><g
     id="g3796-6-8"
     transform="matrix(0.33333333,0,0,0.3337398,166.9661,204.43854)"
     style="opacity:0.4;fill:#ededff;fill-opacity:1"><g
       style="fill:#ededff;fill-opacity:1"
       transform="matrix(1,0,0,1.2156884,-500.89831,59.604431)"
       id="g3-1-4-4"><path
         style="fill:#ededff;fill-opacity:1;fill-rule:evenodd"
         inkscape:connector-curvature="0"
         id="path5-8-8-3"
         d="m 669,545.8 c 0,1.7 -1.3,3 -3,3 H 6 c -1.7,0 -3,-1.3 -3,-3 V 5.7 C 3,4 4.3,2.7 6,2.7 h 660 c 1.7,0 3,1.3 3,3 v 540.1 z"
         clip-rule="evenodd" /><path
         style="fill:#ededff;fill-opacity:1"
         inkscape:connector-curvature="0"
         id="path7-1-6-0"
         d="m 666,5.7 v 540 H 6 V 5.7 h 660 m 0,-6 H 6 c -3.3,0 -6,3 -6,6.3 v 540 c 0,3.3 2.7,5.8 6,5.8 h 660 c 3.3,0 6,-2.4 6,-5.8 V 6 c 0,-3.3 -2.7,-6.3 -6,-6.3 l 0,0 z" /><path
         style="fill:#ededff;fill-opacity:1"
         inkscape:connector-curvature="0"
         id="path9-1-1-1"
         d="m 666,5.7 v 540 H 6 V 5.7 h 660 m 0,-4 H 6 c -2.2,0 -4,2 -4,4.2 v 540 c 0,2.2 1.8,3.8 4,3.8 h 660 c 2.2,0 4,-1.5 4,-3.8 V 6 c 0,-2.2 -1.8,-4.3 -4,-4.3 l 0,0 z" /></g><rect
       y="66.2034"
       x="-276.89832"
       height="657.25421"
       width="224"
       id="rect2992-6-2-2"
       style="opacity:0.14732145;fill:#ededff;fill-opacity:1;stroke:#000000;stroke-width:13;stroke-miterlimit:4;stroke-opacity:1;stroke-dasharray:none" /><rect
       transform="matrix(0,-1,1,0,0,0)"
       y="-493.52542"
       x="-506.83047"
       height="657.25421"
       width="224"
       id="rect2992-1-8-7-2"
       style="opacity:0.14732145;fill:#ededff;fill-opacity:1;stroke:#000000;stroke-width:13;stroke-miterlimit:4;stroke-opacity:1;stroke-dasharray:none" /></g><g
     id="g3796-6-8-1"
     transform="matrix(0.33333333,0,0,0.3337398,390.9661,204.43854)"
     style="opacity:0.4;fill:#ededff;fill-opacity:1"><g
       style="fill:#ededff;fill-opacity:1"
       transform="matrix(1,0,0,1.2156884,-500.89831,59.604431)"
       id="g3-1-4-4-0"><path
         style="fill:#ededff;fill-opacity:1;fill-rule:evenodd"
         inkscape:connector-curvature="0"
         id="path5-8-8-3-1"
         d="m 669,545.8 c 0,1.7 -1.3,3 -3,3 H 6 c -1.7,0 -3,-1.3 -3,-3 V 5.7 C 3,4 4.3,2.7 6,2.7 h 660 c 1.7,0 3,1.3 3,3 v 540.1 z"
         clip-rule="evenodd" /><path
         style="fill:#ededff;fill-opacity:1"
         inkscape:connector-curvature="0"
         id="path7-1-6-0-2"
         d="m 666,5.7 v 540 H 6 V 5.7 h 660 m 0,-6 H 6 c -3.3,0 -6,3 -6,6.3 v 540 c 0,3.3 2.7,5.8 6,5.8 h 660 c 3.3,0 6,-2.4 6,-5.8 V 6 c 0,-3.3 -2.7,-6.3 -6,-6.3 l 0,0 z" /><path
         style="fill:#ededff;fill-opacity:1"
         inkscape:connector-curvature="0"
         id="path9-1-1-1-3"
         d="m 666,5.7 v 540 H 6 V 5.7 h 660 m 0,-4 H 6 c -2.2,0 -4,2 -4,4.2 v 540 c 0,2.2 1.8,3.8 4,3.8 h 660 c 2.2,0 4,-1.5 4,-3.8 V 6 c 0,-2.2 -1.8,-4.3 -4,-4.3 l 0,0 z" /></g><rect
       y="66.2034"
       x="-276.89832"
       height="657.25421"
       width="224"
       id="rect2992-6-2-2-9"
       style="opacity:0.14732145;fill:#ededff;fill-opacity:1;stroke:#000000;stroke-width:13;stroke-miterlimit:4;stroke-opacity:1;stroke-dasharray:none" /><rect
       transform="matrix(0,-1,1,0,0,0)"
       y="-493.52542"
       x="-506.83047"
       height="657.25421"
       width="224"
       id="rect2992-1-8-7-2-4"
       style="opacity:0.14732145;fill:#ededff;fill-opacity:1;stroke:#000000;stroke-width:13;stroke-miterlimit:4;stroke-opacity:1;stroke-dasharray:none" /></g><g
     id="g3796-6-8-5"
     transform="matrix(0.33333333,0,0,0.3337398,614.9661,204.43854)"
     style="opacity:0.4;fill:#ededff;fill-opacity:1"><g
       style="fill:#ededff;fill-opacity:1"
       transform="matrix(1,0,0,1.2156884,-500.89831,59.604431)"
       id="g3-1-4-4-5"><path
         style="fill:#ededff;fill-opacity:1;fill-rule:evenodd"
         inkscape:connector-curvature="0"
         id="path5-8-8-3-4"
         d="m 669,545.8 c 0,1.7 -1.3,3 -3,3 H 6 c -1.7,0 -3,-1.3 -3,-3 V 5.7 C 3,4 4.3,2.7 6,2.7 h 660 c 1.7,0 3,1.3 3,3 v 540.1 z"
         clip-rule="evenodd" /><path
         style="fill:#ededff;fill-opacity:1"
         inkscape:connector-curvature="0"
         id="path7-1-6-0-3"
         d="m 666,5.7 v 540 H 6 V 5.7 h 660 m 0,-6 H 6 c -3.3,0 -6,3 -6,6.3 v 540 c 0,3.3 2.7,5.8 6,5.8 h 660 c 3.3,0 6,-2.4 6,-5.8 V 6 c 0,-3.3 -2.7,-6.3 -6,-6.3 l 0,0 z" /><path
         style="fill:#ededff;fill-opacity:1"
         inkscape:connector-curvature="0"
         id="path9-1-1-1-1"
         d="m 666,5.7 v 540 H 6 V 5.7 h 660 m 0,-4 H 6 c -2.2,0 -4,2 -4,4.2 v 540 c 0,2.2 1.8,3.8 4,3.8 h 660 c 2.2,0 4,-1.5 4,-3.8 V 6 c 0,-2.2 -1.8,-4.3 -4,-4.3 l 0,0 z" /></g><rect
       y="66.2034"
       x="-276.89832"
       height="657.25421"
       width="224"
       id="rect2992-6-2-2-4"
       style="opacity:0.14732145;fill:#ededff;fill-opacity:1;stroke:#000000;stroke-width:13;stroke-miterlimit:4;stroke-opacity:1;stroke-dasharray:none" /><rect
       transform="matrix(0,-1,1,0,0,0)"
       y="-493.52542"
       x="-506.83047"
       height="657.25421"
       width="224"
       id="rect2992-1-8-7-2-0"
       style="opacity:0.14732145;fill:#ededff;fill-opacity:1;stroke:#000000;stroke-width:13;stroke-miterlimit:4;stroke-opacity:1;stroke-dasharray:none" /></g><g
     id="g3796-6-8-3"
     transform="matrix(0.33333333,0,0,0.3337398,166.75735,428.23852)"
     style="opacity:0.4;fill:#ededff;fill-opacity:1"><g
       style="fill:#ededff;fill-opacity:1"
       transform="matrix(1,0,0,1.2156884,-500.89831,59.604431)"
       id="g3-1-4-4-6"><path
         style="fill:#ededff;fill-opacity:1;fill-rule:evenodd"
         inkscape:connector-curvature="0"
         id="path5-8-8-3-9"
         d="m 669,545.8 c 0,1.7 -1.3,3 -3,3 H 6 c -1.7,0 -3,-1.3 -3,-3 V 5.7 C 3,4 4.3,2.7 6,2.7 h 660 c 1.7,0 3,1.3 3,3 v 540.1 z"
         clip-rule="evenodd" /><path
         style="fill:#ededff;fill-opacity:1"
         inkscape:connector-curvature="0"
         id="path7-1-6-0-4"
         d="m 666,5.7 v 540 H 6 V 5.7 h 660 m 0,-6 H 6 c -3.3,0 -6,3 -6,6.3 v 540 c 0,3.3 2.7,5.8 6,5.8 h 660 c 3.3,0 6,-2.4 6,-5.8 V 6 c 0,-3.3 -2.7,-6.3 -6,-6.3 l 0,0 z" /><path
         style="fill:#ededff;fill-opacity:1"
         inkscape:connector-curvature="0"
         id="path9-1-1-1-34"
         d="m 666,5.7 v 540 H 6 V 5.7 h 660 m 0,-4 H 6 c -2.2,0 -4,2 -4,4.2 v 540 c 0,2.2 1.8,3.8 4,3.8 h 660 c 2.2,0 4,-1.5 4,-3.8 V 6 c 0,-2.2 -1.8,-4.3 -4,-4.3 l 0,0 z" /></g><rect
       y="66.2034"
       x="-276.89832"
       height="657.25421"
       width="224"
       id="rect2992-6-2-2-2"
       style="opacity:0.14732145;fill:#ededff;fill-opacity:1;stroke:#000000;stroke-width:13;stroke-miterlimit:4;stroke-opacity:1;stroke-dasharray:none" /><rect
       transform="matrix(0,-1,1,0,0,0)"
       y="-493.52542"
       x="-506.83047"
       height="657.25421"
       width="224"
       id="rect2992-1-8-7-2-02"
       style="opacity:0.14732145;fill:#ededff;fill-opacity:1;stroke:#000000;stroke-width:13;stroke-miterlimit:4;stroke-opacity:1;stroke-dasharray:none" /></g><g
     id="g3796-6-8-8"
     transform="matrix(0.33333333,0,0,0.3337398,390.9661,428.02932)"
     style="opacity:0.4;fill:#ededff;fill-opacity:1"><g
       style="fill:#ededff;fill-opacity:1"
       transform="matrix(1,0,0,1.2156884,-500.89831,59.604431)"
       id="g3-1-4-4-06"><path
         style="fill:#ededff;fill-opacity:1;fill-rule:evenodd"
         inkscape:connector-curvature="0"
         id="path5-8-8-3-43"
         d="m 669,545.8 c 0,1.7 -1.3,3 -3,3 H 6 c -1.7,0 -3,-1.3 -3,-3 V 5.7 C 3,4 4.3,2.7 6,2.7 h 660 c 1.7,0 3,1.3 3,3 v 540.1 z"
         clip-rule="evenodd" /><path
         style="fill:#ededff;fill-opacity:1"
         inkscape:connector-curvature="0"
         id="path7-1-6-0-9"
         d="m 666,5.7 v 540 H 6 V 5.7 h 660 m 0,-6 H 6 c -3.3,0 -6,3 -6,6.3 v 540 c 0,3.3 2.7,5.8 6,5.8 h 660 c 3.3,0 6,-2.4 6,-5.8 V 6 c 0,-3.3 -2.7,-6.3 -6,-6.3 l 0,0 z" /><path
         style="fill:#ededff;fill-opacity:1"
         inkscape:connector-curvature="0"
         id="path9-1-1-1-6"
         d="m 666,5.7 v 540 H 6 V 5.7 h 660 m 0,-4 H 6 c -2.2,0 -4,2 -4,4.2 v 540 c 0,2.2 1.8,3.8 4,3.8 h 660 c 2.2,0 4,-1.5 4,-3.8 V 6 c 0,-2.2 -1.8,-4.3 -4,-4.3 l 0,0 z" /></g><rect
       y="66.2034"
       x="-276.89832"
       height="657.25421"
       width="224"
       id="rect2992-6-2-2-5"
       style="opacity:0.14732145;fill:#ededff;fill-opacity:1;stroke:#000000;stroke-width:13;stroke-miterlimit:4;stroke-opacity:1;stroke-dasharray:none" /><rect
       transform="matrix(0,-1,1,0,0,0)"
       y="-493.52542"
       x="-506.83047"
       height="657.25421"
       width="224"
       id="rect2992-1-8-7-2-2"
       style="opacity:0.14732145;fill:#ededff;fill-opacity:1;stroke:#000000;stroke-width:13;stroke-miterlimit:4;stroke-opacity:1;stroke-dasharray:none" /></g><g
     id="g3796-6-8-6"
     transform="matrix(0.33333333,0,0,0.3337398,614.9661,428.02932)"
     style="opacity:0.4;fill:#ededff;fill-opacity:1"><g
       style="fill:#ededff;fill-opacity:1"
       transform="matrix(1,0,0,1.2156884,-500.89831,59.604431)"
       id="g3-1-4-4-65"><path
         style="fill:#ededff;fill-opacity:1;fill-rule:evenodd"
         inkscape:connector-curvature="0"
         id="path5-8-8-3-95"
         d="m 669,545.8 c 0,1.7 -1.3,3 -3,3 H 6 c -1.7,0 -3,-1.3 -3,-3 V 5.7 C 3,4 4.3,2.7 6,2.7 h 660 c 1.7,0 3,1.3 3,3 v 540.1 z"
         clip-rule="evenodd" /><path
         style="fill:#ededff;fill-opacity:1"
         inkscape:connector-curvature="0"
         id="path7-1-6-0-96"
         d="m 666,5.7 v 540 H 6 V 5.7 h 660 m 0,-6 H 6 c -3.3,0 -6,3 -6,6.3 v 540 c 0,3.3 2.7,5.8 6,5.8 h 660 c 3.3,0 6,-2.4 6,-5.8 V 6 c 0,-3.3 -2.7,-6.3 -6,-6.3 l 0,0 z" /><path
         style="fill:#ededff;fill-opacity:1"
         inkscape:connector-curvature="0"
         id="path9-1-1-1-2"
         d="m 666,5.7 v 540 H 6 V 5.7 h 660 m 0,-4 H 6 c -2.2,0 -4,2 -4,4.2 v 540 c 0,2.2 1.8,3.8 4,3.8 h 660 c 2.2,0 4,-1.5 4,-3.8 V 6 c 0,-2.2 -1.8,-4.3 -4,-4.3 l 0,0 z" /></g><rect
       y="66.2034"
       x="-276.89832"
       height="657.25421"
       width="224"
       id="rect2992-6-2-2-50"
       style="opacity:0.14732145;fill:#ededff;fill-opacity:1;stroke:#000000;stroke-width:13;stroke-miterlimit:4;stroke-opacity:1;stroke-dasharray:none" /><rect
       transform="matrix(0,-1,1,0,0,0)"
       y="-493.52542"
       x="-506.83047"
       height="657.25421"
       width="224"
       id="rect2992-1-8-7-2-49"
       style="opacity:0.14732145;fill:#ededff;fill-opacity:1;stroke:#000000;stroke-width:13;stroke-miterlimit:4;stroke-opacity:1;stroke-dasharray:none" /></g></svg>

<?xml version="1.0" encoding="utf-8"?>
<!-- Generator: Adobe Illustrator 18.1.1, SVG Export Plug-In . SVG Version: 6.00 Build 0)  -->
<svg version="1.1" id="Layer_1" xmlns="http://www.w3.org/2000/svg" xmlns:xlink="http://www.w3.org/1999/xlink" x="0px" y="0px"
	 viewBox="0 0 672 552" enable-background="new 0 0 672 552" xml:space="preserve">
<g>
	<path fill-rule="evenodd" clip-rule="evenodd" fill="#226ADD" d="M669,545.8c0,1.7-1.3,3-3,3H6c-1.7,0-3-1.3-3-3V5.7
		c0-1.7,1.3-3,3-3h660c1.7,0,3,1.3,3,3V545.8z"/>
	<path d="M666,5.7v540H6V5.7H666 M666-0.3H6C2.7-0.3,0,2.7,0,6v540c0,3.3,2.7,5.8,6,5.8h660c3.3,0,6-2.4,6-5.8V6
		C672,2.7,669.3-0.3,666-0.3L666-0.3z"/>
	<path fill="#407AED" d="M666,5.7v540H6V5.7H666 M666,1.7H6c-2.2,0-4,2-4,4.2v540c0,2.2,1.8,3.8,4,3.8h660c2.2,0,4-1.5,4-3.8V6
		C670,3.8,668.2,1.7,666,1.7L666,1.7z"/>
</g>
</svg>
